X:1209
T:The New Demesne
M:C|
L:1/8
R:Reel
B:O'Neill"s 1209
N:2nd setting
N:Collected by Ennis
Z:Transcribed by Trish O'Neil
K:D
D23FED AD 3FED|Ec 3cBc edcA|D23FED Eddc|ABGF EDCE|
D23FED AD 3FED|Ec 3cBc edcA|DEFG Addc|ABGE TEDD2||
Tfedc Acdf|edcd efage|Tfedc dcdf|eaag edd2|
3fgf df 3fgf df|3efe ce 3efe ce|dfeg fagb|afge fdd2||
faag fddf|efgf eccg|faag fddB|cAGE TEDD2|
faag fddf|efgf ecce|dfeg fagb|afge fdd2||
3fgf df 3fgf df|3efe ce 3efe ce|3fgf df 3fgf dB|cAGE TEDD2|
3fgf df dfdf|3efe ce cece|dfeg fagb|afge fdd2||
